static/img/kroki/d2972d6a05f7b63e5e06d0b369022889.svg

<?xml version="1.0" encoding="us-ascii" standalone="no"?><svg xmlns="http://www.w3.org/2000/svg" xmlns:xlink="http://www.w3.org/1999/xlink" contentStyleType="text/css" height="252px" preserveAspectRatio="none" style="width:1239px;height:252px;" version="1.1" viewBox="0 0 1239 252" width="1239px" zoomAndPan="magnify"><defs/><g><!--class azure_compute_disk--><g id="elem_azure_compute_disk"><rect codeLine="23" fill="#3D176E" height="39.7891" id="azure_compute_disk" rx="2.5" ry="2.5" style="stroke:#000D19;stroke-width:0.5;" width="212" x="432.5" y="106.79"/><ellipse cx="447.5" cy="126.6845" fill="#ADD1B2" rx="11" ry="11" style="stroke:#181818;stroke-width:1.0;"/><path d="M450.4688,132.3252 Q449.8906,132.622 449.25,132.7627 Q448.6094,132.9189 447.9063,132.9189 Q445.4063,132.9189 444.0781,131.2783 Q442.7656,129.622 442.7656,126.497 Q442.7656,123.372 444.0781,121.7158 Q445.4063,120.0595 447.9063,120.0595 Q448.6094,120.0595 449.25,120.2158 Q449.9063,120.372 450.4688,120.6689 L450.4688,123.3877 Q449.8438,122.8095 449.25,122.5439 Q448.6563,122.2627 448.0313,122.2627 Q446.6875,122.2627 446,123.3408 Q445.3125,124.4033 445.3125,126.497 Q445.3125,128.5908 446,129.6689 Q446.6875,130.7314 448.0313,130.7314 Q448.6563,130.7314 449.25,130.4658 Q449.8438,130.1845 450.4688,129.6064 L450.4688,132.3252 Z " fill="#000000"/><text fill="#D9B8FF" font-family="Helvetica" font-size="17" lengthAdjust="spacing" textLength="170" x="466.5" y="132.5698">azure_compute_disk</text></g><!--class azure_compute_disk_encryption_set--><g id="elem_azure_compute_disk_encryption_set"><rect codeLine="26" fill="#3D176E" height="39.7891" id="azure_compute_disk_encryption_set" rx="2.5" ry="2.5" style="stroke:#000D19;stroke-width:0.5;" width="344" x="30.5" y="206.58"/><ellipse cx="45.5" cy="226.4745" fill="#ADD1B2" rx="11" ry="11" style="stroke:#181818;stroke-width:1.0;"/><path d="M48.4688,232.1152 Q47.8906,232.412 47.25,232.5527 Q46.6094,232.7089 45.9063,232.7089 Q43.4063,232.7089 42.0781,231.0683 Q40.7656,229.412 40.7656,226.287 Q40.7656,223.162 42.0781,221.5058 Q43.4063,219.8495 45.9063,219.8495 Q46.6094,219.8495 47.25,220.0058 Q47.9063,220.162 48.4688,220.4589 L48.4688,223.1777 Q47.8438,222.5995 47.25,222.3339 Q46.6563,222.0527 46.0313,222.0527 Q44.6875,222.0527 44,223.1308 Q43.3125,224.1933 43.3125,226.287 Q43.3125,228.3808 44,229.4589 Q44.6875,230.5214 46.0313,230.5214 Q46.6563,230.5214 47.25,230.2558 Q47.8438,229.9745 48.4688,229.3964 L48.4688,232.1152 Z " fill="#000000"/><text fill="#D9B8FF" font-family="Helvetica" font-size="17" lengthAdjust="spacing" textLength="302" x="64.5" y="232.3598">azure_compute_disk_encryption_set</text></g><!--class azure_compute_disk_type--><g id="elem_azure_compute_disk_type"><rect codeLine="29" fill="#3D176E" height="39.7891" id="azure_compute_disk_type" rx="2.5" ry="2.5" style="stroke:#000D19;stroke-width:0.5;" width="258" x="409.5" y="206.58"/><ellipse cx="424.5" cy="226.4745" fill="#ADD1B2" rx="11" ry="11" style="stroke:#181818;stroke-width:1.0;"/><path d="M427.4688,232.1152 Q426.8906,232.412 426.25,232.5527 Q425.6094,232.7089 424.9063,232.7089 Q422.4063,232.7089 421.0781,231.0683 Q419.7656,229.412 419.7656,226.287 Q419.7656,223.162 421.0781,221.5058 Q422.4063,219.8495 424.9063,219.8495 Q425.6094,219.8495 426.25,220.0058 Q426.9063,220.162 427.4688,220.4589 L427.4688,223.1777 Q426.8438,222.5995 426.25,222.3339 Q425.6563,222.0527 425.0313,222.0527 Q423.6875,222.0527 423,223.1308 Q422.3125,224.1933 422.3125,226.287 Q422.3125,228.3808 423,229.4589 Q423.6875,230.5214 425.0313,230.5214 Q425.6563,230.5214 426.25,230.2558 Q426.8438,229.9745 427.4688,229.3964 L427.4688,232.1152 Z " fill="#000000"/><text fill="#D9B8FF" font-family="Helvetica" font-size="17" lengthAdjust="spacing" textLength="216" x="443.5" y="232.3598">azure_compute_disk_type</text></g><!--class azure_compute_virtual_machine--><g id="elem_azure_compute_virtual_machine"><rect codeLine="32" fill="#3D176E" height="39.7891" id="azure_compute_virtual_machine" rx="2.5" ry="2.5" style="stroke:#000D19;stroke-width:0.5;" width="315" x="7" y="7"/><ellipse cx="22" cy="26.8945" fill="#ADD1B2" rx="11" ry="11" style="stroke:#181818;stroke-width:1.0;"/><path d="M24.9688,32.5352 Q24.3906,32.832 23.75,32.9727 Q23.1094,33.1289 22.4063,33.1289 Q19.9063,33.1289 18.5781,31.4883 Q17.2656,29.832 17.2656,26.707 Q17.2656,23.582 18.5781,21.9258 Q19.9063,20.2695 22.4063,20.2695 Q23.1094,20.2695 23.75,20.4258 Q24.4063,20.582 24.9688,20.8789 L24.9688,23.5977 Q24.3438,23.0195 23.75,22.7539 Q23.1563,22.4727 22.5313,22.4727 Q21.1875,22.4727 20.5,23.5508 Q19.8125,24.6133 19.8125,26.707 Q19.8125,28.8008 20.5,29.8789 Q21.1875,30.9414 22.5313,30.9414 Q23.1563,30.9414 23.75,30.6758 Q24.3438,30.3945 24.9688,29.8164 L24.9688,32.5352 Z " fill="#000000"/><text fill="#D9B8FF" font-family="Helvetica" font-size="17" lengthAdjust="spacing" textLength="273" x="41" y="32.7798">azure_compute_virtual_machine</text></g><!--class azure_compute_virtual_machine_base--><g id="elem_azure_compute_virtual_machine_base"><rect codeLine="35" fill="#3D176E" height="39.7891" id="azure_compute_virtual_machine_base" rx="2.5" ry="2.5" style="stroke:#000D19;stroke-width:0.5;" width="362" x="357.5" y="7"/><ellipse cx="372.5" cy="26.8945" fill="#ADD1B2" rx="11" ry="11" style="stroke:#181818;stroke-width:1.0;"/><path d="M375.4688,32.5352 Q374.8906,32.832 374.25,32.9727 Q373.6094,33.1289 372.9063,33.1289 Q370.4063,33.1289 369.0781,31.4883 Q367.7656,29.832 367.7656,26.707 Q367.7656,23.582 369.0781,21.9258 Q370.4063,20.2695 372.9063,20.2695 Q373.6094,20.2695 374.25,20.4258 Q374.9063,20.582 375.4688,20.8789 L375.4688,23.5977 Q374.8438,23.0195 374.25,22.7539 Q373.6563,22.4727 373.0313,22.4727 Q371.6875,22.4727 371,23.5508 Q370.3125,24.6133 370.3125,26.707 Q370.3125,28.8008 371,29.8789 Q371.6875,30.9414 373.0313,30.9414 Q373.6563,30.9414 374.25,30.6758 Q374.8438,30.3945 375.4688,29.8164 L375.4688,32.5352 Z " fill="#000000"/><text fill="#D9B8FF" font-family="Helvetica" font-size="17" lengthAdjust="spacing" textLength="320" x="391.5" y="32.7798">azure_compute_virtual_machine_base</text></g><!--class azure_compute_virtual_machine_scale_set_instance--><g id="elem_azure_compute_virtual_machine_scale_set_instance"><rect codeLine="38" fill="#3D176E" height="39.7891" id="azure_compute_virtual_machine_scale_set_instance" rx="2.5" ry="2.5" style="stroke:#000D19;stroke-width:0.5;" width="478" x="754.5" y="7"/><ellipse cx="769.5" cy="26.8945" fill="#ADD1B2" rx="11" ry="11" style="stroke:#181818;stroke-width:1.0;"/><path d="M772.4688,32.5352 Q771.8906,32.832 771.25,32.9727 Q770.6094,33.1289 769.9063,33.1289 Q767.4063,33.1289 766.0781,31.4883 Q764.7656,29.832 764.7656,26.707 Q764.7656,23.582 766.0781,21.9258 Q767.4063,20.2695 769.9063,20.2695 Q770.6094,20.2695 771.25,20.4258 Q771.9063,20.582 772.4688,20.8789 L772.4688,23.5977 Q771.8438,23.0195 771.25,22.7539 Q770.6563,22.4727 770.0313,22.4727 Q768.6875,22.4727 768,23.5508 Q767.3125,24.6133 767.3125,26.707 Q767.3125,28.8008 768,29.8789 Q768.6875,30.9414 770.0313,30.9414 Q770.6563,30.9414 771.25,30.6758 Q771.8438,30.3945 772.4688,29.8164 L772.4688,32.5352 Z " fill="#000000"/><text fill="#D9B8FF" font-family="Helvetica" font-size="17" lengthAdjust="spacing" textLength="436" x="788.5" y="32.7798">azure_compute_virtual_machine_scale_set_instance</text></g><!--class azure_compute_virtual_machine_snapshot--><g id="elem_azure_compute_virtual_machine_snapshot"><rect codeLine="41" fill="#3D176E" height="39.7891" id="azure_compute_virtual_machine_snapshot" rx="2.5" ry="2.5" style="stroke:#000D19;stroke-width:0.5;" width="399" x="703" y="206.58"/><ellipse cx="718" cy="226.4745" fill="#ADD1B2" rx="11" ry="11" style="stroke:#181818;stroke-width:1.0;"/><path d="M720.9688,232.1152 Q720.3906,232.412 719.75,232.5527 Q719.1094,232.7089 718.4063,232.7089 Q715.9063,232.7089 714.5781,231.0683 Q713.2656,229.412 713.2656,226.287 Q713.2656,223.162 714.5781,221.5058 Q715.9063,219.8495 718.4063,219.8495 Q719.1094,219.8495 719.75,220.0058 Q720.4063,220.162 720.9688,220.4589 L720.9688,223.1777 Q720.3438,222.5995 719.75,222.3339 Q719.1563,222.0527 718.5313,222.0527 Q717.1875,222.0527 716.5,223.1308 Q715.8125,224.1933 715.8125,226.287 Q715.8125,228.3808 716.5,229.4589 Q717.1875,230.5214 718.5313,230.5214 Q719.1563,230.5214 719.75,230.2558 Q720.3438,229.9745 720.9688,229.3964 L720.9688,232.1152 Z " fill="#000000"/><text fill="#D9B8FF" font-family="Helvetica" font-size="17" lengthAdjust="spacing" textLength="357" x="737" y="232.3598">azure_compute_virtual_machine_snapshot</text></g><!--link azure_compute_disk to azure_compute_disk_encryption_set--><g id="link_azure_compute_disk_azure_compute_disk_encryption_set"><path codeLine="44" d="M472.12,147.01 C413.31,164.12 333.651,187.3034 274.791,204.4334 " fill="none" id="azure_compute_disk-to-azure_compute_disk_encryption_set" style="stroke:#1A83AF;stroke-width:2.0;"/><polygon fill="#1A83AF" points="269.03,206.11,278.7892,207.4357,273.8308,204.7128,276.5537,199.7544,269.03,206.11" style="stroke:#1A83AF;stroke-width:2.0;"/></g><!--link azure_compute_disk to azure_compute_disk_type--><g id="link_azure_compute_disk_azure_compute_disk_type"><path codeLine="45" d="M538.5,147.01 C538.5,164.15 538.5,183.06 538.5,200.2 " fill="none" id="azure_compute_disk-to-azure_compute_disk_type" style="stroke:#1A83AF;stroke-width:2.0;"/><polygon fill="#1A83AF" points="538.5,206.2,542.5,197.2,538.5,201.2,534.5,197.2,538.5,206.2" style="stroke:#1A83AF;stroke-width:2.0;"/></g><!--link azure_compute_disk to azure_compute_virtual_machine_snapshot--><g id="link_azure_compute_disk_azure_compute_virtual_machine_snapshot"><path codeLine="46" d="M610.41,147.01 C674.13,164.12 760.8655,187.4232 824.6255,204.5532 " fill="none" id="azure_compute_disk-to-azure_compute_virtual_machine_snapshot" style="stroke:#1A83AF;stroke-width:2.0;"/><polygon fill="#1A83AF" points="830.42,206.11,822.7661,199.9118,825.5912,204.8127,820.6904,207.6378,830.42,206.11" style="stroke:#1A83AF;stroke-width:2.0;"/></g><!--link azure_compute_virtual_machine to azure_compute_disk--><g id="link_azure_compute_virtual_machine_azure_compute_disk"><path codeLine="47" d="M238.39,47.22 C303.85,64.33 393.1252,87.6721 458.6352,104.8021 " fill="none" id="azure_compute_virtual_machine-to-azure_compute_disk" style="stroke:#1A83AF;stroke-width:2.0;"/><polygon fill="#1A83AF" points="464.44,106.32,456.7447,100.1733,459.6026,105.0551,454.7208,107.9131,464.44,106.32" style="stroke:#1A83AF;stroke-width:2.0;"/></g><!--link azure_compute_virtual_machine_base to azure_compute_disk--><g id="link_azure_compute_virtual_machine_base_azure_compute_disk"><path codeLine="48" d="M538.5,47.22 C538.5,64.36 538.5,83.27 538.5,100.41 " fill="none" id="azure_compute_virtual_machine_base-to-azure_compute_disk" style="stroke:#1A83AF;stroke-width:2.0;"/><polygon fill="#1A83AF" points="538.5,106.41,542.5,97.41,538.5,101.41,534.5,97.41,538.5,106.41" style="stroke:#1A83AF;stroke-width:2.0;"/></g><!--link azure_compute_virtual_machine_scale_set_instance to azure_compute_disk--><g id="link_azure_compute_virtual_machine_scale_set_instance_azure_compute_disk"><path codeLine="49" d="M903.33,47.28 C823.67,64.4 713.966,87.9793 634.356,105.0893 " fill="none" id="azure_compute_virtual_machine_scale_set_instance-to-azure_compute_disk" style="stroke:#1A83AF;stroke-width:2.0;"/><polygon fill="#1A83AF" points="628.49,106.35,638.1296,108.3696,633.3784,105.2994,636.4486,100.5482,628.49,106.35" style="stroke:#1A83AF;stroke-width:2.0;"/></g><!--SRC=[fP51Jy9048Nl_HMRS2QX4WKk9aXYz4ACU3EccUvEwQRjRZCxXO3nlqi5JMqf1Rtk-_RDcpUnLYWmotaZCin29EUvH9iS238n9RBhcKqjYLuKGJGSrSLxQxWJc4E6uW7J5RAMK2TUOYqJWyw9gufq1p9PaYsCsjipWN4x2GrNg5aApasPIOS5OoMCceJZAAgJTTFUKFcZ6snWbXJI0HaC1igVr97EKIVt_Y4MUel2hvOsjuoDc8qHNzJ9b2LH2TbOz5jlpVW4Iccp5DULj-Tz9Z98lzuNCIYxBka8KbSTunW9BMzod3MsmibOHQEZy6CRxCcoEW7RWZ2GDijtPm-KTebuzxoFLZL08scJixOcSCWTS9cW7LbfuWBI80CPQtC-68JWBg2TX1JBi84sZi78I_uQo5ri3tiUAQl_slEdu-7q_gr_srtNNnpA3Y_yrxQ5Txh_ZYJU6KVvdyMHItKPVW80]--></g></svg>

<svg xmlns="http://www.w3.org/2000/svg" width="1239" height="252" viewBox="0 0 1239 252"><rect width="212" height="39.789" x="432.5" y="106.79" fill="#3D176E" rx="2.5" ry="2.5" style="stroke:#000d19;stroke-width:.5"/><circle cx="447.5" cy="126.684" r="11" fill="#ADD1B2" style="stroke:#181818;stroke-width:1"/><path d="M450.469 132.325q-.578.297-1.219.438-.64.156-1.344.156-2.5 0-3.828-1.64-1.312-1.657-1.312-4.782t1.312-4.781q1.328-1.656 3.828-1.656.703 0 1.344.156.656.156 1.219.453v2.719q-.625-.579-1.219-.844-.594-.281-1.219-.281-1.344 0-2.031 1.078-.687 1.062-.687 3.156t.687 3.172q.688 1.062 2.031 1.062.625 0 1.219-.265.594-.281 1.219-.86z"/><text x="466.5" y="132.57" fill="#D9B8FF" font-family="Helvetica" font-size="17" textLength="170">azure_compute_disk</text><rect width="344" height="39.789" x="30.5" y="206.58" fill="#3D176E" rx="2.5" ry="2.5" style="stroke:#000d19;stroke-width:.5"/><circle cx="45.5" cy="226.475" r="11" fill="#ADD1B2" style="stroke:#181818;stroke-width:1"/><path d="M48.469 232.115q-.578.297-1.219.438-.64.156-1.344.156-2.5 0-3.828-1.64-1.312-1.657-1.312-4.782t1.312-4.781q1.328-1.656 3.828-1.656.703 0 1.344.156.656.156 1.219.453v2.719q-.625-.578-1.219-.844-.594-.281-1.219-.281-1.343 0-2.031 1.078-.687 1.062-.687 3.156t.687 3.172q.688 1.062 2.031 1.062.625 0 1.219-.265.594-.281 1.219-.86z"/><text x="64.5" y="232.36" fill="#D9B8FF" font-family="Helvetica" font-size="17" textLength="302">azure_compute_disk_encryption_set</text><rect width="258" height="39.789" x="409.5" y="206.58" fill="#3D176E" rx="2.5" ry="2.5" style="stroke:#000d19;stroke-width:.5"/><circle cx="424.5" cy="226.475" r="11" fill="#ADD1B2" style="stroke:#181818;stroke-width:1"/><path d="M427.469 232.115q-.578.297-1.219.438-.64.156-1.344.156-2.5 0-3.828-1.64-1.312-1.657-1.312-4.782t1.312-4.781q1.328-1.656 3.828-1.656.703 0 1.344.156.656.156 1.219.453v2.719q-.625-.578-1.219-.844-.594-.281-1.219-.281-1.344 0-2.031 1.078-.687 1.062-.687 3.156t.687 3.172q.688 1.062 2.031 1.062.625 0 1.219-.265.594-.281 1.219-.86z"/><text x="443.5" y="232.36" fill="#D9B8FF" font-family="Helvetica" font-size="17" textLength="216">azure_compute_disk_type</text><rect width="315" height="39.789" x="7" y="7" fill="#3D176E" rx="2.5" ry="2.5" style="stroke:#000d19;stroke-width:.5"/><circle cx="22" cy="26.895" r="11" fill="#ADD1B2" style="stroke:#181818;stroke-width:1"/><path d="M24.969 32.535q-.578.297-1.219.438-.64.156-1.344.156-2.5 0-3.828-1.64-1.312-1.657-1.312-4.782t1.312-4.781q1.328-1.656 3.828-1.656.703 0 1.344.156.656.156 1.219.453v2.719q-.625-.578-1.219-.844-.594-.281-1.219-.281-1.343 0-2.031 1.078-.687 1.062-.687 3.156t.687 3.172q.688 1.062 2.031 1.062.625 0 1.219-.265.594-.281 1.219-.86z"/><text x="41" y="32.78" fill="#D9B8FF" font-family="Helvetica" font-size="17" textLength="273">azure_compute_virtual_machine</text><rect width="362" height="39.789" x="357.5" y="7" fill="#3D176E" rx="2.5" ry="2.5" style="stroke:#000d19;stroke-width:.5"/><circle cx="372.5" cy="26.895" r="11" fill="#ADD1B2" style="stroke:#181818;stroke-width:1"/><path d="M375.469 32.535q-.578.297-1.219.438-.64.156-1.344.156-2.5 0-3.828-1.64-1.312-1.657-1.312-4.782t1.312-4.781q1.328-1.656 3.828-1.656.703 0 1.344.156.656.156 1.219.453v2.719q-.625-.578-1.219-.844-.594-.281-1.219-.281-1.344 0-2.031 1.078-.687 1.062-.687 3.156t.687 3.172q.688 1.062 2.031 1.062.625 0 1.219-.265.594-.281 1.219-.86z"/><text x="391.5" y="32.78" fill="#D9B8FF" font-family="Helvetica" font-size="17" textLength="320">azure_compute_virtual_machine_base</text><rect width="478" height="39.789" x="754.5" y="7" fill="#3D176E" rx="2.5" ry="2.5" style="stroke:#000d19;stroke-width:.5"/><circle cx="769.5" cy="26.895" r="11" fill="#ADD1B2" style="stroke:#181818;stroke-width:1"/><path d="M772.469 32.535q-.578.297-1.219.438-.64.156-1.344.156-2.5 0-3.828-1.64-1.312-1.657-1.312-4.782t1.312-4.781q1.328-1.656 3.828-1.656.703 0 1.344.156.656.156 1.219.453v2.719q-.625-.578-1.219-.844-.594-.281-1.219-.281-1.343 0-2.031 1.078-.687 1.062-.687 3.156t.687 3.172q.688 1.062 2.031 1.062.625 0 1.219-.265.594-.281 1.219-.86z"/><text x="788.5" y="32.78" fill="#D9B8FF" font-family="Helvetica" font-size="17" textLength="436">azure_compute_virtual_machine_scale_set_instance</text><rect width="399" height="39.789" x="703" y="206.58" fill="#3D176E" rx="2.5" ry="2.5" style="stroke:#000d19;stroke-width:.5"/><circle cx="718" cy="226.475" r="11" fill="#ADD1B2" style="stroke:#181818;stroke-width:1"/><path d="M720.969 232.115q-.578.297-1.219.438-.64.156-1.344.156-2.5 0-3.828-1.64-1.312-1.657-1.312-4.782t1.312-4.781q1.328-1.656 3.828-1.656.703 0 1.344.156.656.156 1.219.453v2.719q-.625-.578-1.219-.844-.594-.281-1.219-.281-1.343 0-2.031 1.078-.687 1.062-.687 3.156t.687 3.172q.688 1.062 2.031 1.062.625 0 1.219-.265.594-.281 1.219-.86z"/><text x="737" y="232.36" fill="#D9B8FF" font-family="Helvetica" font-size="17" textLength="357">azure_compute_virtual_machine_snapshot</text><path fill="none" d="M472.12 147.01c-58.81 17.11-138.469 40.293-197.329 57.423" style="stroke:#1a83af;stroke-width:2"/><path fill="#1A83AF" d="m269.03 206.11 9.76 1.326-4.96-2.723 2.724-4.959z" style="stroke:#1a83af;stroke-width:2"/><path fill="none" d="M538.5 147.01v53.19" style="stroke:#1a83af;stroke-width:2"/><path fill="#1A83AF" d="m538.5 206.2 4-9-4 4-4-4z" style="stroke:#1a83af;stroke-width:2"/><path fill="none" d="M610.41 147.01c63.72 17.11 150.456 40.413 214.216 57.543" style="stroke:#1a83af;stroke-width:2"/><path fill="#1A83AF" d="m830.42 206.11-7.654-6.198 2.825 4.9-4.9 2.826z" style="stroke:#1a83af;stroke-width:2"/><path fill="none" d="M238.39 47.22c65.46 17.11 154.735 40.452 220.245 57.582" style="stroke:#1a83af;stroke-width:2"/><path fill="#1A83AF" d="m464.44 106.32-7.695-6.147 2.858 4.882-4.882 2.858z" style="stroke:#1a83af;stroke-width:2"/><path fill="none" d="M538.5 47.22v53.19" style="stroke:#1a83af;stroke-width:2"/><path fill="#1A83AF" d="m538.5 106.41 4-9-4 4-4-4z" style="stroke:#1a83af;stroke-width:2"/><path fill="none" d="M903.33 47.28c-79.66 17.12-189.364 40.7-268.974 57.81" style="stroke:#1a83af;stroke-width:2"/><path fill="#1A83AF" d="m628.49 106.35 9.64 2.02-4.752-3.07 3.07-4.752z" style="stroke:#1a83af;stroke-width:2"/></svg>
